brandFactory_export/3.Masa/On_3Masa.svg

<?xml version="1.0" encoding="UTF-8"?>
<svg width="24px" height="24px" viewBox="0 0 24 24" version="1.1" xmlns="http://www.w3.org/2000/svg" xmlns:xlink="http://www.w3.org/1999/xlink">
    <title>3.Masa/On_3Masa</title>
    <g id="Symbols" stroke="none" stroke-width="1" fill="none" fill-rule="evenodd">
        <g id="3.Masa/On_3Masa" fill="#5CB615" fill-rule="nonzero">
            <path d="M18.3630252,16.2386555 L18.3630252,8.17142857 C18.3630252,7.89915966 18.1411765,7.68067227 17.8722689,7.68067227 L17.5428571,7.68067227 C17.2705882,7.68067227 17.0521008,7.90252101 17.0521008,8.17142857 L17.0521008,13.8991597 L13.0756303,7.89915966 C12.9848739,7.76134454 12.8302521,7.67731092 12.6655462,7.67731092 L12.4033613,7.67731092 C12.1344538,7.67731092 11.912605,7.89915966 11.912605,8.16806723 L11.912605,16.2352941 C11.912605,16.507563 12.1344538,16.7260504 12.4033613,16.7260504 L12.7327731,16.7260504 C13.005042,16.7260504 13.2235294,16.5042017 13.2235294,16.2352941 L13.2235294,10.5176471 L17.1831933,16.5109244 C17.2739496,16.6487395 17.4285714,16.7327731 17.5932773,16.7327731 L17.8655462,16.7327731 C18.1411765,16.7327731 18.3630252,16.5109244 18.3630252,16.2386555 L18.3630252,16.2386555 Z M7.65042017,16.897479 C9.19327731,16.897479 11.0319328,16.087395 11.0319328,12.2184874 C11.0319328,8.3394958 9.19327731,7.52605042 7.65042017,7.52605042 C6.10084034,7.52605042 4.25546218,8.3394958 4.25546218,12.2184874 C4.25546218,16.0840336 6.10084034,16.897479 7.65042017,16.897479 Z M12.2957983,0.043697479 C14.1848739,0.087394958 23.6235294,0.870588235 23.6235294,11.8756303 C23.6235294,22.887395 14.2218487,23.6168067 12.3394958,23.6504202 C12.1344538,23.6537815 11.902521,23.6571429 11.6638655,23.6571429 C11.5394958,23.6571429 11.4084034,23.6571429 11.287395,23.6537815 C0.544537815,23.4991597 0,13.7579832 0,11.8084034 C0,9.85882353 0.541176471,0.124369748 11.2067227,0.0336134454 C11.5663866,0.0302521008 11.9630252,0.0369747899 12.2957983,0.043697479 Z M7.65042017,8.86386555 C8.59159664,8.86386555 9.67058824,9.24705882 9.67058824,12.2184874 C9.67058824,15.1529412 8.6487395,15.5495798 7.65042017,15.5495798 C6.64537815,15.5495798 5.61680672,15.1529412 5.61680672,12.2184874 C5.61680672,9.2605042 6.64537815,8.86386555 7.65042017,8.86386555 Z" id="On_3Masa"></path>
        </g>
    </g>
</svg>

<svg width="24" height="24" viewBox="0 0 24 24" xmlns="http://www.w3.org/2000/svg"><path d="M18.363 16.239V8.17a.491.491 0 00-.49-.49h-.33a.491.491 0 00-.49.49V13.9l-3.977-6a.493.493 0 00-.41-.222h-.263a.494.494 0 00-.49.491v8.067c0 .273.221.491.49.491h.33c.272 0 .49-.222.49-.49v-5.718l3.96 5.993c.09.138.246.222.41.222h.273a.496.496 0 00.497-.494zm-10.713.658c1.543 0 3.382-.81 3.382-4.679 0-3.879-1.839-4.692-3.382-4.692-1.55 0-3.395.813-3.395 4.692 0 3.866 1.846 4.68 3.395 4.68zM12.296.044c1.889.043 11.328.827 11.328 11.832 0 11.011-9.402 11.74-11.285 11.774a41.12 41.12 0 01-.675.007c-.125 0-.256 0-.377-.003C.545 23.499 0 13.758 0 11.808 0 9.858.541.124 11.207.034c.36-.004.756.003 1.089.01zM7.65 8.864c.942 0 2.02.383 2.02 3.354 0 2.935-1.021 3.332-2.02 3.332-1.005 0-2.033-.397-2.033-3.332 0-2.957 1.028-3.354 2.033-3.354z" fill="#5CB615" fill-rule="nonzero"/></svg>
